X: 1
T: Aandowin at da Bow
O: Shetland
M: C|
L: 1/8
K: G
(A | "G"B)GAG "C"E2"D"D2 | "G"(BG)(AG) "D"BGAd | "G"BGAG "C"E2(DE) | "D7"GABA "G"G3 :|
(g | "G"eg)dB "C"AGE2 | "G"(eg)dg "D"egd(g | "G"eg)dB "C"AGE(e | "G"g3)(g "D"a)(f"G"g2) |
   | "G"egdg "D"egd(g | "G"eg)dB "C"A(GED) | "G"GABG "C"E2(DE) | "D7"GABA "G"G3 |]
